X:140
T:Hare's Foot
Z: id:dc-reel-129
M:C
L:1/8
K:E Dorian
BA|G3A BEE2|BEdE BEEF|GFGA BABd|egfd ed:|!
ef|g2fg edBc|d2ed Bdd2|g2fg edBd|egfd e2ef|!
g2fg edBc|d2ed Bdd2|bgaf gfed|egfd ed|]!

